dist/img/catalog/tag_sale.svg

<svg width="16" height="16" viewBox="0 0 16 16" fill="none" xmlns="http://www.w3.org/2000/svg">
<path d="M5.38628 14.88C5.54094 15.0666 5.39161 15.3493 5.15694 15.3173C2.85294 14.976 1.59961 13.024 1.59961 11.1413C1.59961 7.33328 6.13828 5.88795 6.18628 0.799952C6.18628 0.586618 6.42094 0.458619 6.60228 0.575952C9.00228 2.12262 11.0289 5.71728 11.1943 8.53328C11.2103 8.76262 11.4769 8.87995 11.6423 8.71462C12.1116 8.24528 12.4156 7.10928 12.4529 6.37328C12.4636 6.15462 12.7249 6.05328 12.8956 6.19728C13.8983 7.04528 14.6663 8.77862 14.6663 10.4C14.6663 11.728 12.7836 15.0133 8.90628 15.344C8.67161 15.3653 8.52761 15.0986 8.67161 14.9173C9.56228 13.808 11.2689 10.8266 7.31161 7.63728C7.15161 7.50928 6.92228 7.61062 6.89028 7.80795C6.57028 9.72795 4.42628 10.2506 4.42628 12.192C4.42628 13.4666 4.97561 14.3733 5.40228 14.88H5.38628Z" fill="white"/>
</svg>

<svg width="16" height="16" viewBox="0 0 16 16" fill="none" xmlns="http://www.w3.org/2000/svg"><path d="M5.386 14.88c.155.187.006.47-.23.437-2.303-.341-3.556-2.293-3.556-4.176C1.6 7.333 6.138 5.888 6.186.8c0-.213.235-.341.416-.224 2.4 1.547 4.427 5.141 4.592 7.957.016.23.283.347.448.182.47-.47.774-1.606.81-2.342.012-.218.273-.32.444-.176 1.002.848 1.77 2.582 1.77 4.203 0 1.328-1.882 4.613-5.76 4.944a.265.265 0 01-.234-.427c.89-1.109 2.597-4.09-1.36-7.28-.16-.128-.39-.026-.422.171-.32 1.92-2.464 2.443-2.464 4.384 0 1.275.55 2.181.976 2.688h-.016z" fill="#fff"/></svg>
